src/basic/800/u23F8-pause.svg

<svg width="15" height="16" viewBox="0 0 15 16" fill="none" xmlns="http://www.w3.org/2000/svg">
<path fill-rule="evenodd" clip-rule="evenodd" d="M7.01237,1.99161c-3.32054,0 -6.01237,2.69183 -6.01237,6.01237c0,3.32052 2.69183,6.01232 6.01237,6.01232c3.32053,0 6.01233,-2.6918 6.01233,-6.01232c0,-3.32054 -2.6918,-6.01237 -6.01233,-6.01237zM0,8.00398c0,-3.87283 3.13954,-7.01237 7.01237,-7.01237c3.87283,0 7.01233,3.13954 7.01233,7.01237c0,3.87282 -3.1395,7.01232 -7.01233,7.01232c-3.87283,0 -7.01237,-3.1395 -7.01237,-7.01232zM9,5v6h-1v-6zM5.01868,11v-6h1v6z" fill="black"/>
</svg>

<svg width="15" height="16" viewBox="0 0 15 16" fill="none" xmlns="http://www.w3.org/2000/svg">
<path fill-rule="evenodd" clip-rule="evenodd" d="M7.01237 1.99161C3.69183 1.99161 1 4.68344 1 8.00398C1 11.3245 3.69183 14.0163 7.01237 14.0163C10.3329 14.0163 13.0247 11.3245 13.0247 8.00398C13.0247 4.68344 10.3329 1.99161 7.01237 1.99161ZM0 8.00398C0 4.13115 3.13954 0.991608 7.01237 0.991608C10.8852 0.991608 14.0247 4.13115 14.0247 8.00398C14.0247 11.8768 10.8852 15.0163 7.01237 15.0163C3.13954 15.0163 0 11.8768 0 8.00398ZM9 5V11H8V5H9ZM6.01868 11V5H5.01868V11H6.01868Z" fill="black"/>
</svg>
